X:345
T:Inisheer
C:Thomas Walsh
M:3/4
L:1/8
K:G
D2 | B3 A Bd | B4 D2 | E3 B AB | D4 D2 | 
B3 A Bd | B4 d2 | G3 B A/2G/2F | G4 D2 | 
B3 A Bd | B4 D2 | E3B AB | D4 D2 | 
B3 A Bd | B4 d2 | G3 B A/2G/2F | G3 || 
A Bd | e3 f ed | B4 d2 | gf ed Bd | e4 Bd | 
e3 f ed | B4 d2 | E3 B A/2G/2F | G3 | 
A Bd | e3 f ed | B4 d2 | gf ed Bd | e4 Bd | 
e3 f ed | B4 d2 | E3 B AB | G4 || 

